icon-svg/aqara-h1-3.svg

<svg xmlns="http://www.w3.org/2000/svg" viewBox="0 0 24 24"><path fill="#44739e" d="M18.944 2.044 17.864 2l.046 20 .994-.069a.4.4 0 0 0 .366-.391V2.383a.34.34 0 0 0-.326-.339m-1.37.046-.774-.033h-.06l-3.5.221.135 19.438 3.652.284h.017l.346-.022a.063.063 0 0 0 .061-.063l-.02-17.723h.224V2.175a.083.083 0 0 0-.081-.085m-9.005.517v18.707l4.54.328-.182-19.318Zm-3.739.24a.1.1 0 0 0-.1.1v17.922a.167.167 0 0 0 .151.164l3.419.281-.036-18.707Z"/></svg>

<?xml version="1.0" encoding="UTF-8"?>
<svg width="24px" fill="#44739e" height="24px" viewBox="0 0 24 24" version="1.1" xmlns="http://www.w3.org/2000/svg" xmlns:xlink="http://www.w3.org/1999/xlink">
            <path d="M 18.944,2.044 17.864,2 17.91,22 18.904,21.931 A 0.4,0.4 0 0 0 19.27,21.54 V 2.383 A 0.339,0.339 0 0 0 18.944,2.044 Z m -1.37,0.046 v 0 L 16.8,2.057 h -0.06 l -3.5,0.221 0.135,19.438 3.652,0.284 h 0.017 l 0.346,-0.022 a 0.063,0.063 0 0 0 0.061,-0.063 L 17.431,4.192 h 0.224 V 2.175 A 0.083,0.083 0 0 0 17.574,2.09 Z M 8.569,2.607 v 18.707 l 4.54,0.328 L 12.927,2.324 Z M 4.83,2.847 a 0.1,0.1 0 0 0 -0.1,0.1 v 17.922 a 0.167,0.167 0 0 0 0.151,0.164 L 8.3,21.314 8.264,2.607 Z"/>

</svg>
